dist/intermediate-svg/score-check.svg

<?xml version="1.0" encoding="utf-8"?><svg width="12" height="14" fill="none" xmlns="http://www.w3.org/2000/svg" viewBox="0 0 12 14"><path d="M9.42857 7.2071V12.3929C9.42857 12.8643 9.04286 13.25 8.57143 13.25H0.857143C0.385714 13.25 0 12.8643 0 12.3929V3.82143C0 3.35 0.385714 2.96429 0.857143 2.96429H5.69999C5.61428 3.22143 5.57143 3.52143 5.57143 3.82143H0.857143V12.3929H8.57143V7.2071C8.7 7.2071 8.87143 7.25 9 7.25C9.12857 7.25 9.3 7.24996 9.42857 7.2071ZM4.28571 8.32143C4.28571 8.19286 4.2 8.10714 4.07143 8.10714H1.92857C1.8 8.10714 1.71429 8.19286 1.71429 8.32143V8.75C1.71429 8.87857 1.8 8.96429 1.92857 8.96429H4.07143C4.2 8.96429 4.28571 8.87857 4.28571 8.75V8.32143ZM6.42857 11.3214C6.68571 11.3214 6.85714 11.15 6.85714 10.8929V10.5928C7.24286 10.4213 7.5 10.0357 7.5 9.60714C7.5 9.00714 7.02857 8.53571 6.42857 8.53571H6.21429C6.08571 8.53571 6 8.45 6 8.32143C6 8.19286 6.08571 8.10714 6.21429 8.10714H6.85714C7.11429 8.10714 7.28571 7.93571 7.28571 7.67857C7.28571 7.42143 7.11429 7.25 6.85714 7.25V7.03571C6.85714 6.77857 6.68571 6.60714 6.42857 6.60714C6.17143 6.60714 6 6.77857 6 7.03571V7.2929C5.52857 7.37861 5.14286 7.80714 5.14286 8.32143C5.14286 8.92143 5.61429 9.39286 6.21429 9.39286H6.42857C6.55714 9.39286 6.64286 9.47857 6.64286 9.60714C6.64286 9.73571 6.55714 9.82143 6.42857 9.82143H5.78571C5.52857 9.82143 5.35714 9.99286 5.35714 10.25C5.35714 10.5071 5.52857 10.6786 5.78571 10.6786H6V10.8929C6 11.15 6.17143 11.3214 6.42857 11.3214ZM4.28571 6.60714C4.28571 6.47857 4.2 6.39286 4.07143 6.39286H1.92857C1.8 6.39286 1.71429 6.47857 1.71429 6.60714V7.03571C1.71429 7.16429 1.8 7.25 1.92857 7.25H4.07143C4.2 7.25 4.28571 7.16429 4.28571 7.03571V6.60714ZM4.07143 9.82143H1.92857C1.8 9.82143 1.71429 9.90714 1.71429 10.0357V10.4643C1.71429 10.5929 1.8 10.6786 1.92857 10.6786H4.07143C4.2 10.6786 4.28571 10.5929 4.28571 10.4643V10.0357C4.28571 9.90714 4.2 9.82143 4.07143 9.82143ZM4.28571 4.89286C4.28571 4.76429 4.2 4.67857 4.07143 4.67857H1.92857C1.8 4.67857 1.71429 4.76429 1.71429 4.89286V5.32143C1.71429 5.45 1.8 5.53571 1.92857 5.53571H4.07143C4.2 5.53571 4.28571 5.45 4.28571 5.32143V4.89286ZM11.5714 3.82143C11.5714 5.23571 10.4143 6.39286 9 6.39286C7.58571 6.39286 6.42857 5.23571 6.42857 3.82143C6.42857 2.40714 7.58571 1.25 9 1.25C10.4143 1.25 11.5714 2.40714 11.5714 3.82143ZM10.3286 2.87849L10.1143 2.7071C10.0714 2.66424 9.98572 2.66424 9.94286 2.7071L8.57143 3.99282L7.80001 3.65004C7.75715 3.60718 7.67142 3.65008 7.62857 3.69294L7.45714 3.94992C7.41428 3.99277 7.41428 4.07866 7.45714 4.12151L8.39999 5.06424C8.57142 5.23567 8.82858 5.19277 8.95715 5.02134L10.2857 3.05008C10.4143 2.96437 10.4143 2.87849 10.3286 2.87849Z" fill="#fff"/><path d="M9.42857 6.7071V11.8929C9.42857 12.3643 9.04286 12.75 8.57143 12.75H0.857143C0.385714 12.75 0 12.3643 0 11.8929V3.32143C0 2.85 0.385714 2.46429 0.857143 2.46429H5.7C5.61428 2.72143 5.57143 3.02143 5.57143 3.32143H0.857143V11.8929H8.57143V6.7071C8.7 6.7071 8.87143 6.75 9 6.75C9.12857 6.75 9.3 6.74996 9.42857 6.7071ZM4.28571 7.82143C4.28571 7.69286 4.2 7.60714 4.07143 7.60714H1.92857C1.8 7.60714 1.71429 7.69286 1.71429 7.82143V8.25C1.71429 8.37857 1.8 8.46429 1.92857 8.46429H4.07143C4.2 8.46429 4.28571 8.37857 4.28571 8.25V7.82143ZM6.42857 10.8214C6.68571 10.8214 6.85714 10.65 6.85714 10.3929V10.0928C7.24286 9.92134 7.5 9.53571 7.5 9.10714C7.5 8.50714 7.02857 8.03571 6.42857 8.03571H6.21429C6.08571 8.03571 6 7.95 6 7.82143C6 7.69286 6.08571 7.60714 6.21429 7.60714H6.85714C7.11429 7.60714 7.28571 7.43571 7.28571 7.17857C7.28571 6.92143 7.11429 6.75 6.85714 6.75V6.53571C6.85714 6.27857 6.68571 6.10714 6.42857 6.10714C6.17143 6.10714 6 6.27857 6 6.53571V6.7929C5.52857 6.87861 5.14286 7.30714 5.14286 7.82143C5.14286 8.42143 5.61429 8.89286 6.21429 8.89286H6.42857C6.55714 8.89286 6.64286 8.97857 6.64286 9.10714C6.64286 9.23571 6.55714 9.32143 6.42857 9.32143H5.78571C5.52857 9.32143 5.35714 9.49286 5.35714 9.75C5.35714 10.0071 5.52857 10.1786 5.78571 10.1786H6V10.3929C6 10.65 6.17143 10.8214 6.42857 10.8214ZM4.28571 6.10714C4.28571 5.97857 4.2 5.89286 4.07143 5.89286H1.92857C1.8 5.89286 1.71429 5.97857 1.71429 6.10714V6.53571C1.71429 6.66429 1.8 6.75 1.92857 6.75H4.07143C4.2 6.75 4.28571 6.66429 4.28571 6.53571V6.10714ZM4.07143 9.32143H1.92857C1.8 9.32143 1.71429 9.40714 1.71429 9.53571V9.96429C1.71429 10.0929 1.8 10.1786 1.92857 10.1786H4.07143C4.2 10.1786 4.28571 10.0929 4.28571 9.96429V9.53571C4.28571 9.40714 4.2 9.32143 4.07143 9.32143ZM4.28571 4.39286C4.28571 4.26429 4.2 4.17857 4.07143 4.17857H1.92857C1.8 4.17857 1.71429 4.26429 1.71429 4.39286V4.82143C1.71429 4.95 1.8 5.03571 1.92857 5.03571H4.07143C4.2 5.03571 4.28571 4.95 4.28571 4.82143V4.39286ZM11.5714 3.32143C11.5714 4.73571 10.4143 5.89286 9 5.89286C7.58571 5.89286 6.42857 4.73571 6.42857 3.32143C6.42857 1.90714 7.58571 0.75 9 0.75C10.4143 0.75 11.5714 1.90714 11.5714 3.32143ZM10.3286 2.37849L10.1143 2.2071C10.0714 2.16424 9.98572 2.16424 9.94286 2.2071L8.57143 3.49282L7.80001 3.15004C7.75715 3.10718 7.67142 3.15008 7.62857 3.19294L7.45714 3.44992C7.41428 3.49277 7.41428 3.57866 7.45714 3.62151L8.39999 4.56424C8.57142 4.73567 8.82858 4.69277 8.95715 4.52134L10.2857 2.55008C10.4143 2.46437 10.4143 2.37849 10.3286 2.37849Z" fill="#1E6393"/></svg>

<?xml version="1.0" encoding="utf-8"?><svg width="12" height="14" fill="none" xmlns="http://www.w3.org/2000/svg" viewBox="0 0 12 14"><path d="M9.429 7.207v5.186a.86.86 0 01-.858.857H.857A.86.86 0 010 12.393V3.82a.86.86 0 01.857-.857H5.7a2.763 2.763 0 00-.129.857H.857v8.572h7.714V7.207c.129 0 .3.043.429.043s.3 0 .429-.043zM4.286 8.321c0-.128-.086-.214-.215-.214H1.93c-.129 0-.215.086-.215.214v.429c0 .129.086.214.215.214H4.07c.129 0 .215-.085.215-.214v-.429zm2.143 3c.257 0 .428-.171.428-.428v-.3c.386-.172.643-.557.643-.986 0-.6-.471-1.071-1.071-1.071h-.215C6.086 8.536 6 8.45 6 8.32c0-.128.086-.214.214-.214h.643c.257 0 .429-.171.429-.428 0-.258-.172-.429-.429-.429v-.214c0-.257-.171-.429-.428-.429-.258 0-.429.172-.429.429v.257a1.061 1.061 0 00.214 2.1h.215c.128 0 .214.086.214.214 0 .129-.086.214-.214.214h-.643c-.257 0-.429.172-.429.429s.172.429.429.429H6v.214c0 .257.171.428.429.428zM4.286 6.607c0-.128-.086-.214-.215-.214H1.93c-.129 0-.215.086-.215.214v.429c0 .128.086.214.215.214H4.07c.129 0 .215-.086.215-.214v-.429zM4.07 9.821H1.93c-.129 0-.215.086-.215.215v.428c0 .129.086.215.215.215H4.07c.129 0 .215-.086.215-.215v-.428c0-.129-.086-.215-.215-.215zm.215-4.928c0-.129-.086-.214-.215-.214H1.93c-.129 0-.215.085-.215.214v.428c0 .129.086.215.215.215H4.07c.129 0 .215-.086.215-.215v-.428zM11.57 3.82A2.579 2.579 0 019 6.393 2.579 2.579 0 016.429 3.82 2.579 2.579 0 019 1.25a2.579 2.579 0 012.571 2.571zm-1.242-.943l-.215-.17a.13.13 0 00-.171 0L8.57 3.992 7.8 3.65c-.043-.043-.129 0-.171.043l-.172.257a.13.13 0 000 .172l.943.942a.366.366 0 00.557-.043l1.329-1.97c.128-.087.128-.173.043-.173z" fill="#fff"/><path d="M9.429 6.707v5.186a.86.86 0 01-.858.857H.857A.86.86 0 010 11.893V3.32a.86.86 0 01.857-.857H5.7a2.763 2.763 0 00-.129.857H.857v8.572h7.714V6.707c.129 0 .3.043.429.043s.3 0 .429-.043zM4.286 7.821c0-.128-.086-.214-.215-.214H1.93c-.129 0-.215.086-.215.214v.429c0 .129.086.214.215.214H4.07c.129 0 .215-.085.215-.214v-.429zm2.143 3c.257 0 .428-.171.428-.428v-.3c.386-.172.643-.557.643-.986 0-.6-.471-1.071-1.071-1.071h-.215C6.086 8.036 6 7.95 6 7.82c0-.128.086-.214.214-.214h.643c.257 0 .429-.171.429-.428 0-.258-.172-.429-.429-.429v-.214c0-.257-.171-.429-.428-.429-.258 0-.429.172-.429.429v.257a1.061 1.061 0 00.214 2.1h.215c.128 0 .214.086.214.214 0 .129-.086.214-.214.214h-.643c-.257 0-.429.172-.429.429s.172.429.429.429H6v.214c0 .257.171.428.429.428zM4.286 6.107c0-.128-.086-.214-.215-.214H1.93c-.129 0-.215.086-.215.214v.429c0 .128.086.214.215.214H4.07c.129 0 .215-.086.215-.214v-.429zM4.07 9.321H1.93c-.129 0-.215.086-.215.215v.428c0 .129.086.215.215.215H4.07c.129 0 .215-.086.215-.215v-.428c0-.129-.086-.215-.215-.215zm.215-4.928c0-.129-.086-.214-.215-.214H1.93c-.129 0-.215.085-.215.214v.428c0 .129.086.215.215.215H4.07c.129 0 .215-.086.215-.215v-.428zM11.57 3.32A2.579 2.579 0 019 5.893 2.579 2.579 0 016.429 3.32 2.579 2.579 0 019 .75a2.579 2.579 0 012.571 2.571zm-1.242-.943l-.215-.17a.13.13 0 00-.171 0L8.57 3.492 7.8 3.15c-.043-.043-.129 0-.171.043l-.172.257a.13.13 0 000 .172l.943.942a.366.366 0 00.557-.043l1.329-1.97c.128-.087.128-.173.043-.173z" fill="#1E6393"/></svg>
